style-guide/assets/wds-icons-link.svg

<svg xmlns="http://www.w3.org/2000/svg" xmlns:xlink="http://www.w3.org/1999/xlink" width="24" height="24" viewBox="0 0 24 24">
  <defs>
    <path id="link-a" d="M13.109,9.4697 C12.718,9.8607 12.718,10.4927 13.109,10.8837 C15.165,12.9397 15.165,16.2857 13.109,18.3417 L12,19.4507 C9.943,21.5077 6.598,21.5077 4.541,19.4507 C2.485,17.3947 2.485,14.0487 4.541,11.9927 C4.932,11.6027 4.932,10.9697 4.541,10.5787 C4.151,10.1887 3.518,10.1887 3.127,10.5787 C0.291,13.4147 0.291,18.0297 3.127,20.8657 C4.545,22.2827 6.408,22.9917 8.271,22.9917 C10.133,22.9917 11.996,22.2827 13.414,20.8657 L14.523,19.7557 C15.897,18.3827 16.653,16.5557 16.653,14.6137 C16.653,12.6697 15.897,10.8437 14.523,9.4697 C14.132,9.0787 13.5,9.0787 13.109,9.4697 M20.8663,3.127 C18.0303,0.291 13.4153,0.291 10.5793,3.127 L9.4703,4.236 C8.0963,5.609 7.3403,7.437 7.3403,9.379 C7.3403,11.322 8.0963,13.148 9.4703,14.523 C9.6653,14.718 9.9213,14.815 10.1773,14.815 C10.4333,14.815 10.6893,14.718 10.8843,14.523 C11.2753,14.132 11.2753,13.499 10.8843,13.108 C8.8283,11.053 8.8283,7.706 10.8843,5.65 L11.9933,4.541 C14.0503,2.484 17.3953,2.484 19.4523,4.541 C21.5083,6.598 21.5083,9.943 19.4523,11.999 C19.0613,12.39 19.0613,13.023 19.4523,13.413 C19.8433,13.804 20.4753,13.804 20.8663,13.413 C23.7023,10.577 23.7023,5.963 20.8663,3.127"/>
  </defs>
  <use fill-rule="evenodd" xlink:href="#link-a"/>
</svg>

<svg viewBox="0 0 24 24" xmlns="http://www.w3.org/2000/svg">
  <path d="M13.109 9.47a.999.999 0 0 0 0 1.414 5.28 5.28 0 0 1 0 7.458L12 19.45a5.28 5.28 0 0 1-7.459 0 5.28 5.28 0 0 1 0-7.458.999.999 0 1 0-1.414-1.414c-2.836 2.836-2.836 7.45 0 10.287a7.255 7.255 0 0 0 5.144 2.126 7.255 7.255 0 0 0 5.143-2.126l1.109-1.11a7.222 7.222 0 0 0 2.13-5.142c0-1.944-.756-3.77-2.13-5.144a.999.999 0 0 0-1.414 0m7.757-6.343C18.03.29 13.416.29 10.579 3.126L9.47 4.236a7.224 7.224 0 0 0-2.13 5.143c0 1.943.756 3.769 2.13 5.144a.996.996 0 0 0 .707.292 1 1 0 0 0 .707-1.707 5.28 5.28 0 0 1 0-7.458l1.11-1.109a5.28 5.28 0 0 1 7.458 0 5.28 5.28 0 0 1 0 7.458.999.999 0 1 0 1.414 1.414c2.836-2.836 2.836-7.45 0-10.286"/>
</svg>
